src/components/Icon/icons/volume.svg

<svg xmlns="http://www.w3.org/2000/svg" viewBox="0 0 32 32">
  <path d="M16.6862 9.11828C16.9058 9.22114 17.0461 9.44176 17.0461 9.68427V22.3157C17.0461 22.5582 16.9058 22.7789 16.6862 22.8817C16.4666 22.9846 16.2073 22.9511 16.021 22.7959L11.1423 18.7302H8.00016C7.65499 18.7302 7.37516 18.4504 7.37516 18.1052V13.8948C7.37516 13.5496 7.65499 13.2698 8.00016 13.2698H11.1423L16.021 9.20414C16.2073 9.04888 16.4666 9.01542 16.6862 9.11828ZM15.7961 11.0187L11.7687 14.3749C11.6563 14.4685 11.5148 14.5198 11.3685 14.5198H8.62516V17.4802H11.3685C11.5148 17.4802 11.6563 17.5315 11.7687 17.6251L15.7961 20.9813V11.0187Z M22.2082 9.10715L22.5715 9.61573C23.91 11.4896 24.6247 13.7218 24.6247 16C24.6247 18.2775 23.9101 20.5164 22.5193 22.3558L22.1424 22.8544L21.1453 22.1005L21.5223 21.6019C22.742 19.9888 23.3747 18.0172 23.3747 16C23.3747 13.9835 22.7421 12.0052 21.5543 10.3423L21.1911 9.8337L22.2082 9.10715Z M19.4544 10.6695L19.803 11.1883C21.7549 14.0934 21.7541 17.8606 19.8488 20.7639L19.5059 21.2864L18.4609 20.6006L18.8038 20.0781C20.4353 17.5919 20.4345 14.3697 18.7654 11.8854L18.4169 11.3666L19.4544 10.6695Z" />
</svg>

<svg xmlns="http://www.w3.org/2000/svg" viewBox="0 0 32 32">
  <path d="M15.796 11.019l-4.027 3.356a.625.625 0 01-.4.145H8.625v2.96h2.744c.146 0 .288.051.4.145l4.027 3.356V11.02zm-4.427 2.251h-.226l-.174.145.4-.145zm4.652-4.066a.625.625 0 011.025.48v12.632c0 .53-.618.82-1.025.48l-4.878-4.066H8a.625.625 0 01-.625-.625v-4.21c0-.345.28-.625.625-.625h3.143l4.878-4.066zm5.533 1.138l-.363-.508 1.017-.727.364.509A10.987 10.987 0 0124.625 16c0 2.308-.733 4.54-2.105 6.356l-.377.498-.997-.753.376-.499c1.207-1.596 1.853-3.564 1.853-5.602 0-2.02-.636-3.999-1.82-5.658zm-2.789 1.544l-.348-.52 1.037-.696.349.518a8.645 8.645 0 01.045 9.576l-.342.522-1.045-.685.343-.523a7.395 7.395 0 00-.039-8.192z" fill-rule="nonzero"/>
</svg>
